X: 1
T: Cut The Sod
M: 4/4
L: 1/8
R: reel
K: Gmaj
d3^c dG~G2|dG~G2 c2Bc|d2BG DFAd|cAFA c2Bc|
d2BG DG~G2|dG~G2 c2Bc|d2BG DFAd|cAFA c2Bc|
dg~g2 df~f2|dg~g2 c2Bc|dg~g2 defd|cAFA c2Bc|
dg~g2 df~f2|dg~g2 c2Bc|defg abag|fdcA GABc|
